src/assets/pay.svg

<svg width="28" height="27" viewBox="0 0 28 27" fill="none" xmlns="http://www.w3.org/2000/svg">
<path d="M11.9817 11.1836H15.2993V16.4621C14.8471 16.6882 14.2441 16.7636 13.7918 16.7636C12.5858 16.7636 11.9817 16.1606 11.9817 14.8027V11.1836ZM27.1354 16.6016C25.4221 23.8567 18.1523 28.3488 10.8983 26.6354C3.64318 24.9232 -0.848949 17.6523 0.864426 10.3983C2.5778 3.14318 9.84755 -1.34895 17.1016 0.364426C24.3567 2.0778 28.8488 9.34755 27.1354 16.6016ZM20.1256 9.97755C20.1209 9.71912 20.0162 9.47256 19.8334 9.28979C19.6507 9.10702 19.4041 9.0023 19.1457 8.99768H17.3356L13.1888 4.24793C12.8119 3.79568 12.2089 3.64493 11.6059 3.79568L10.1727 4.2468C9.94655 4.32218 9.87118 4.62368 10.0219 4.77443L14.5456 9.07193H7.68418C7.45805 9.07193 7.3073 9.22268 7.3073 9.4488V10.2026C7.3073 10.7302 7.75955 11.1824 8.28718 11.1824H9.34243V14.8016C9.34243 17.5162 10.7746 19.0991 13.1877 19.0991C13.9414 19.0991 14.5444 19.0237 15.2993 18.7222V21.1353C15.2993 21.8137 15.8269 22.3413 16.5053 22.3413H17.5606C17.6781 22.3339 17.7888 22.2838 17.8721 22.2006C17.9553 22.1173 18.0054 22.0066 18.0128 21.8891V11.1082H19.7476C19.9737 11.1082 20.1244 10.9574 20.1244 10.7313L20.1256 9.97755Z" fill="white"/>
</svg>

<svg xmlns="http://www.w3.org/2000/svg" width="28" height="27" fill="none"><path fill="#fff" d="M11.982 11.184h3.317v5.278c-.452.226-1.055.302-1.507.302-1.206 0-1.81-.603-1.81-1.961zm15.153 5.418c-1.713 7.255-8.983 11.747-16.237 10.033C3.643 24.923-.849 17.652.864 10.398 2.578 3.143 9.848-1.349 17.102.364c7.255 1.714 11.747 8.984 10.033 16.238m-7.01-6.624a1 1 0 0 0-.98-.98h-1.81l-4.146-4.75c-.377-.452-.98-.603-1.583-.452l-1.433.45c-.226.076-.302.378-.151.528l4.524 4.298H7.684c-.226 0-.377.15-.377.377v.754c0 .527.453.98.98.98h1.055v3.619c0 2.714 1.433 4.297 3.846 4.297.753 0 1.356-.075 2.111-.377v2.413a1.19 1.19 0 0 0 1.206 1.206h1.056a.484.484 0 0 0 .452-.452V11.11h1.735c.226 0 .376-.152.376-.378z"/></svg>
